packages/kaspersky-hexa-ui-icons/src/iconsSVGs/48/AppActivity.svg

<svg width="48" height="48" viewBox="0 0 48 48" fill="none" xmlns="http://www.w3.org/2000/svg">
<path fill-rule="evenodd" clip-rule="evenodd" d="M0 3V45H48V3H0ZM46 5V9H2V5H46ZM2 43V11H46V43H2ZM8 26.84L9.48 28.2L6.23 31.68L4.77 30.32L8 26.84ZM21.1 30.05L19.75 31.52L15.88 28L17.23 26.53L21.1 30.05ZM31.54 22.46L33.19 23.6L28.42 30.54L26.79 29.4L31.54 22.46ZM40.08 21.68L44.19 25.79L42.77 27.21L38.68 23.1L40.08 21.68ZM12.5 20C10.567 20 9 21.567 9 23.5C9 25.433 10.567 27 12.5 27C14.433 27 16 25.433 16 23.5C16 21.567 14.433 20 12.5 20ZM13.57 24.56C13.2877 24.8396 12.9073 24.9975 12.51 25C12.1114 25.0054 11.7272 24.8507 11.4435 24.5707C11.1597 24.2907 11 23.9087 11 23.51C10.9946 23.1114 11.1493 22.7272 11.4293 22.4435C11.7093 22.1597 12.0913 22 12.49 22C12.8886 21.9946 13.2728 22.1493 13.5565 22.4293C13.8403 22.7093 14 23.0913 14 23.49C14.0017 23.8891 13.8474 24.2731 13.57 24.56ZM24.5 31C22.567 31 21 32.567 21 34.5C21 36.433 22.567 38 24.5 38C26.433 38 28 36.433 28 34.5C28 32.567 26.433 31 24.5 31ZM25.57 35.56C25.2877 35.8396 24.9073 35.9975 24.51 36C24.1092 36.0108 23.7219 35.8551 23.44 35.57C23.0115 35.1497 22.8748 34.5145 23.0925 33.9552C23.3101 33.3959 23.8402 33.0202 24.44 33C24.8472 32.9809 25.2444 33.1293 25.5391 33.4109C25.8339 33.6924 26.0004 34.0824 26 34.49C26.0017 34.8891 25.8474 35.2731 25.57 35.56ZM35.5 15C33.567 15 32 16.567 32 18.5C32 20.433 33.567 22 35.5 22C37.433 22 39 20.433 39 18.5C39 16.567 37.433 15 35.5 15ZM36.57 19.56C36.2877 19.8396 35.9073 19.9975 35.51 20C35.109 20.012 34.7212 19.8561 34.44 19.57C34.0057 19.1433 33.8724 18.4963 34.1027 17.9327C34.3329 17.369 34.8811 17.0005 35.49 17C35.8886 16.9946 36.2728 17.1493 36.5565 17.4293C36.8403 17.7093 37 18.0913 37 18.49C37.0017 18.8891 36.8474 19.2731 36.57 19.56ZM45 8H43V6H45V8ZM41 8H39V6H41V8Z"  fill="currentColor"/>
</svg>

<svg xmlns="http://www.w3.org/2000/svg" width="48" height="48" fill="none" viewBox="0 0 48 48"><path fill="currentColor" fill-rule="evenodd" d="M0 3v42h48V3zm46 2v4H2V5zM2 43V11h44v32zm6-16.16 1.48 1.36-3.25 3.48-1.46-1.36zm13.1 3.21-1.35 1.47L15.88 28l1.35-1.47zm10.44-7.59 1.65 1.14-4.77 6.94-1.63-1.14zm8.54-.78 4.11 4.11-1.42 1.42-4.09-4.11zM12.5 20C10.567 20 9 21.567 9 23.5s1.567 3.5 3.5 3.5 3.5-1.567 3.5-3.5-1.567-3.5-3.5-3.5m1.07 4.56a1.52 1.52 0 0 1-1.06.44A1.4897 1.4897 0 0 1 11 23.51 1.4897 1.4897 0 0 1 12.49 22 1.4897 1.4897 0 0 1 14 23.49a1.53 1.53 0 0 1-.43 1.07M24.5 31c-1.933 0-3.5 1.567-3.5 3.5s1.567 3.5 3.5 3.5 3.5-1.567 3.5-3.5-1.567-3.5-3.5-3.5m1.07 4.56a1.52 1.52 0 0 1-1.06.44 1.45 1.45 0 0 1-1.07-.43 1.4998 1.4998 0 0 1 1-2.57A1.4897 1.4897 0 0 1 26 34.49a1.53 1.53 0 0 1-.43 1.07M35.5 15c-1.933 0-3.5 1.567-3.5 3.5s1.567 3.5 3.5 3.5 3.5-1.567 3.5-3.5-1.567-3.5-3.5-3.5m1.07 4.56a1.52 1.52 0 0 1-1.06.44 1.44 1.44 0 0 1-1.07-.43A1.5 1.5 0 0 1 35.49 17 1.4897 1.4897 0 0 1 37 18.49a1.53 1.53 0 0 1-.43 1.07M45 8h-2V6h2zm-4 0h-2V6h2z" clip-rule="evenodd"/></svg>
